layouts/icon-pack/spell_necrotic.svg

<?xml version="1.0" encoding="UTF-8"?>
<svg width="1200pt" height="1200pt" version="1.1" viewBox="0 0 1200 1200" xmlns="http://www.w3.org/2000/svg">
 <g fill="#fff">
  <path d="m520.15 763.2c8.1484-10.047 16.848-19.633 26.062-28.711 18.418-17.906 43.395-27.445 69.062-26.371 25.664 1.0703 49.758 12.66 66.617 32.043 15.5 17.703 29.992 36.262 43.406 55.594 17.02 24.461 25.57 53.816 24.348 83.594-1.2227 29.773-12.152 58.328-31.121 81.312-32.016 38.625-79.945 81.047-147.26 104.95-32.316 11.375-66.918 14.707-100.81 9.7109-33.895-5-66.062-18.18-93.719-38.398-35.156-25.57-73.406-62.367-99.445-112.5-23.035-44.246-30.285-95.027-20.555-143.95 10.266-51.68 37.5-125.16 108.56-191.58 0 0 72.656-76.078 186-105.8 117.94-30.961 242.37 8.4141 325.15 97.945 8.1094 8.7891 16.242 18.281 24.211 28.523 115.1 148.03 94.336 358.59-43.148 486.12-14.062 13.066-29.004 25.16-44.719 36.188-20.039 14.062-45.75-7.5-35.789-29.836 22.781-51.141 50.766-124.97 63.281-201.8 5.1992-31.77 3.2422-64.301-5.7305-95.219-8.9727-30.918-24.734-59.441-46.137-83.492-35-39.359-77.316-71.543-124.59-94.758-24.152-11.805-51.105-16.66-77.859-14.035-26.754 2.6289-52.246 12.641-73.641 28.918-48.137 36.348-84.922 85.656-106.05 142.15-12.379 32.711-8.3203 69.371 10.922 98.578 5.6523 8.5781 11.867 16.766 18.609 24.516 37.945 43.359 103.34 51.82 148.29 15.773 6.1523-4.8711 11.664-10.504 16.406-16.758 17.531-23.438 12.656-58.758-9.5156-77.789-16.594-14.031-36.512-23.57-57.844-27.703-7.8594-1.707-14.27-7.375-16.918-14.973-2.6523-7.5938-1.1602-16.02 3.9336-22.246z"/>
  <path d="m349.59 146.48c1.0664-6.8984 4.9336-13.051 10.688-17.008 5.7539-3.9531 12.883-5.3594 19.707-3.8828s12.734 5.7031 16.34 11.68c21.027 35.145 31.945 75.414 31.547 116.37v33.539c0.011719 24.109-5.0039 47.957-14.727 70.016-9.7188 22.062-23.934 41.855-41.734 58.117-51.047 46.523-123.87 117.82-162.42 178.12-6.4531 10.133-17.539 16.371-29.551 16.629-12.008 0.26172-23.355-5.4961-30.238-15.34-13.477-19.398-20.504-42.547-20.086-66.164 0.51562-30.25 11.641-59.359 31.43-82.242l108.82-128.09c34.355-40.164 59.332-87.473 73.125-138.49 2.9531-10.953 5.3203-22.055 7.1016-33.258z"/>
  <path d="m570.8 92.977c10.172-34.008 56.062-40.102 74.109-9.5391 10.758 18.258 19.031 39.469 19.031 61.547v159.89c0 37.5-46.172 55.055-71.25 27.211-23.039-25.57-42.773-60.586-42.773-105.47 0-50.438 10.242-97.711 20.883-133.64z"/>
  <path d="m800.62 209.91c-18.609 33.094-34.125 86.227 3.8203 145.8 12.672 19.484 29.129 36.223 48.398 49.219 34.688 23.906 112.9 84.375 148.12 165.28 3.0391 6.9883 8.7109 12.5 15.781 15.34 7.0742 2.8438 14.98 2.7852 22.012-0.16406 7.0273-2.9453 12.617-8.5391 15.551-15.574 9.375-22.148 16.57-52.57 16.57-93.375 0 0-2.8594-107.06-103.24-167.3-45.539-26.965-85.816-61.961-118.88-103.29-6.0391-7.6016-15.48-11.684-25.156-10.867s-18.301 6.4141-22.984 14.922z"/>
 </g>
</svg>

<?xml version="1.0" encoding="UTF-8" standalone="no"?>
<!DOCTYPE svg PUBLIC "-//W3C//DTD SVG 1.1//EN" "http://www.w3.org/Graphics/SVG/1.1/DTD/svg11.dtd">
<svg width="100%" height="100%" viewBox="0 0 450 512" version="1.1" xmlns="http://www.w3.org/2000/svg" xmlns:xlink="http://www.w3.org/1999/xlink" xml:space="preserve" xmlns:serif="http://www.serif.com/" style="fill-rule:evenodd;clip-rule:evenodd;stroke-linejoin:round;stroke-miterlimit:2;">
    <g transform="matrix(1,0,0,1,-129.098,-63.6404)">
        <g transform="matrix(0.477296,0,0,0.477296,67.4802,33.2651)">
            <path d="M520.15,763.2C528.298,753.153 536.998,743.567 546.212,734.489C564.63,716.583 589.607,707.044 615.274,708.118C640.938,709.188 665.032,720.778 681.891,740.161C697.391,757.864 711.883,776.423 725.297,795.755C742.317,820.216 750.867,849.571 749.645,879.349C748.422,909.122 737.493,937.677 718.524,960.661C686.508,999.286 638.579,1041.71 571.264,1065.61C538.948,1076.99 504.346,1080.32 470.454,1075.32C436.559,1070.32 404.392,1057.14 376.735,1036.92C341.579,1011.35 303.329,974.557 277.29,924.424C254.255,880.178 247.005,829.397 256.735,780.474C267.001,728.794 294.235,655.314 365.295,588.894C365.295,588.894 437.951,512.816 551.295,483.094C669.235,452.133 793.665,491.508 876.445,581.039C884.554,589.828 892.687,599.32 900.656,609.562C1015.76,757.592 994.992,968.152 857.508,1095.68C843.446,1108.75 828.504,1120.84 812.789,1131.87C792.75,1145.93 767.039,1124.37 777,1102.03C799.781,1050.89 827.766,977.064 840.281,900.234C845.48,868.464 843.523,835.933 834.55,805.015C825.578,774.097 809.816,745.574 788.413,721.523C753.413,682.164 711.097,649.98 663.823,626.765C639.671,614.96 612.718,610.105 585.964,612.73C559.21,615.359 533.718,625.371 512.323,641.648C464.186,677.996 427.401,727.304 406.273,783.798C393.894,816.509 397.953,853.169 417.195,882.376C422.848,890.954 429.062,899.142 435.804,906.892C473.749,950.251 539.144,958.712 584.094,922.665C590.247,917.794 595.758,912.161 600.5,905.907C618.031,882.469 613.156,847.149 590.985,828.118C574.391,814.087 554.473,804.548 533.141,800.415C525.281,798.708 518.871,793.04 516.223,785.442C513.571,777.848 515.063,769.422 520.156,763.196L520.15,763.2Z" style="fill:white;fill-rule:nonzero;"/>
            <path d="M349.59,146.48C350.656,139.582 354.524,133.429 360.278,129.472C366.032,125.519 373.161,124.113 379.985,125.589C386.809,127.066 392.719,131.292 396.325,137.269C417.352,172.414 428.27,212.683 427.872,253.639L427.872,287.178C427.884,311.287 422.868,335.135 413.145,357.194C403.426,379.256 389.211,399.049 371.411,415.311C320.364,461.834 247.541,533.131 208.991,593.431C202.538,603.564 191.452,609.802 179.44,610.06C167.432,610.322 156.085,604.564 149.202,594.72C135.725,575.322 128.698,552.173 129.116,528.556C129.632,498.306 140.757,469.197 160.546,446.314L269.366,318.224C303.721,278.06 328.698,230.751 342.491,179.734C345.444,168.781 347.811,157.679 349.593,146.476L349.59,146.48Z" style="fill:white;fill-rule:nonzero;"/>
            <path d="M570.8,92.977C580.972,58.969 626.862,52.875 644.909,83.438C655.667,101.696 663.94,122.907 663.94,144.985L663.94,304.875C663.94,342.375 617.768,359.93 592.69,332.086C569.651,306.516 549.917,271.5 549.917,226.616C549.917,176.178 560.159,128.905 570.8,92.976L570.8,92.977Z" style="fill:white;fill-rule:nonzero;"/>
            <path d="M800.62,209.91C782.011,243.004 766.495,296.137 804.44,355.71C817.112,375.194 833.569,391.933 852.838,404.929C887.526,428.835 965.738,489.304 1000.96,570.209C1004,577.197 1009.67,582.709 1016.74,585.549C1023.81,588.393 1031.72,588.334 1038.75,585.385C1045.78,582.44 1051.37,576.846 1054.3,569.811C1063.68,547.663 1070.87,517.241 1070.87,476.436C1070.87,476.436 1068.01,369.376 967.632,309.136C922.093,282.171 881.816,247.175 848.752,205.846C842.713,198.244 833.272,194.162 823.596,194.979C813.92,195.796 805.295,201.393 800.612,209.901L800.62,209.91Z" style="fill:white;fill-rule:nonzero;"/>
        </g>
    </g>
</svg>
